web/ui/src/assets/svgs/index/hub-btn.svg

<?xml version="1.0" encoding="UTF-8"?>
<svg width="48px" height="48px" viewBox="0 0 48 48" version="1.1" xmlns="http://www.w3.org/2000/svg" xmlns:xlink="http://www.w3.org/1999/xlink">
    <title>组件信息</title>
    <g id="页面-1" stroke="none" stroke-width="1" fill="none" fill-rule="evenodd" opacity="0.498296693">
        <g id="建木自动化-首页备份-4" transform="translate(-1604.000000, -117.000000)" fill-rule="nonzero">
            <g id="组件信息" transform="translate(1604.000000, 117.000000)">
                <rect id="矩形" fill="#000000" opacity="0" x="0" y="0" width="48" height="48"></rect>
                <path d="M42.7513043,31.0309565 L26.2372174,40.9398261 C25.7326061,41.219452 25.1632512,41.3612509 24.5864348,41.3509565 C23.9895652,41.3509565 23.3906087,41.2132174 22.9335652,40.9398261 L6.41947828,31.0309565 C5.50747828,30.4841739 5.50747828,29.5951304 6.41947828,29.0504348 L9.22017389,27.3704348 L21.9631305,35.0170435 C22.6956522,35.4532174 23.6243478,35.6932174 24.5864348,35.6932174 C25.5464348,35.6932174 26.4751305,35.4532174 27.2076522,35.0170435 L39.9506087,27.3704348 L42.7513043,29.0504348 C43.6633043,29.5972174 43.6633043,30.4841739 42.7513043,31.0309565 L42.7513043,31.0309565 Z" id="路径" fill="#7B8C9C"></path>
                <path d="M42.7513043,23.4886957 L26.2372174,33.3996522 C25.7326061,33.6792781 25.1632512,33.821077 24.5864348,33.8107826 C23.9895652,33.8107826 23.3906087,33.6730435 22.9335652,33.3996522 L6.41947828,23.4886957 C5.50747828,22.941913 5.50747828,22.0528695 6.41947828,21.5081739 L9.22017389,19.826087 L21.9631305,27.4726957 C22.6956522,27.9130435 23.6243478,28.1530435 24.5864348,28.1530435 C25.5464348,28.1530435 26.4751305,27.9130435 27.2076522,27.4726957 L39.9526957,19.826087 L42.7533913,21.5081739 C43.6633043,22.0549565 43.6633043,22.944 42.7513043,23.4886957 Z" id="路径" fill="#7B8C9C"></path>
                <path d="M42.7513043,15.9485217 L26.2372174,25.8594783 C25.7326061,26.1391042 25.1632512,26.280903 24.5864348,26.2706087 C23.9895652,26.2706087 23.3906087,26.1328695 22.9335652,25.8594783 L6.41947828,15.9485217 C5.50747828,15.4038261 5.50747828,14.5126956 6.41947828,13.968 L22.9335652,4.05704348 C23.3906087,3.78365217 23.9895652,3.648 24.5864348,3.648 C25.1812174,3.648 25.7801739,3.78365217 26.2372174,4.05704348 L42.7513043,13.968 C43.6633043,14.5147826 43.6633043,15.4038261 42.7513043,15.9485217 Z" id="路径" fill="#7B8C9C"></path>
            </g>
        </g>
    </g>
</svg>

<svg height="48" viewBox="0 0 48 48" width="48" xmlns="http://www.w3.org/2000/svg"><g fill="none" opacity=".498297"><path d="m0 0h48v48h-48z" fill="#000" opacity="0"/><g fill="#7b8c9c"><path d="m42.7513043 31.0309565-16.5140869 9.9088696c-.5046113.2796259-1.0739662.4214248-1.6507826.4111304-.5968696 0-1.1958261-.1377391-1.6528696-.4111304l-16.51408692-9.9088696c-.912-.5467826-.912-1.4358261 0-1.9805217l2.80069561-1.68 12.74295661 7.6466087c.7325217.4361739 1.6612173.6761739 2.6233043.6761739.96 0 1.8886957-.24 2.6212174-.6761739l12.7429565-7.6466087 2.8006956 1.68c.912.5467826.912 1.4337391 0 1.9805217z"/><path d="m42.7513043 23.4886957-16.5140869 9.9109565c-.5046113.2796259-1.0739662.4214248-1.6507826.4111304-.5968696 0-1.1958261-.1377391-1.6528696-.4111304l-16.51408692-9.9109565c-.912-.5467827-.912-1.4358262 0-1.9805218l2.80069561-1.6820869 12.74295661 7.6466087c.7325217.4403478 1.6612173.6803478 2.6233043.6803478.96 0 1.8886957-.24 2.6212174-.6803478l12.7450435-7.6466087 2.8006956 1.6820869c.909913.5467826.909913 1.4358261-.002087 1.9805218z"/><path d="m42.7513043 15.9485217-16.5140869 9.9109566c-.5046113.2796259-1.0739662.4214247-1.6507826.4111304-.5968696 0-1.1958261-.1377392-1.6528696-.4111304l-16.51408692-9.9109566c-.912-.5446956-.912-1.4358261 0-1.9805217l16.51408692-9.91095652c.4570435-.27339131 1.056-.40904348 1.6528696-.40904348.5947826 0 1.1937391.13565217 1.6507826.40904348l16.5140869 9.91095652c.912.5467826.912 1.4358261 0 1.9805217z"/></g></g></svg>
